FINK
CUT[WER IST EIN MANN]
REG[Europa, Mitteleuropa, Deutschland]
KEY[F0411  16  D 4/4]
MEL[5_6_7_  +1__.3_5__.-7_  1___0_
    1_2_3_  4___5___  3___0__
    4_3_  2_.34_.31__+1_7_  6_.7+1_.65__
    +1__  +2__+2__+1_7_6_7_  +1___.
    +1_6_  5__4_3_4__2__  1___0_ //] >>
FCT[Vaterlands -, Heimat - Lied, nationalistisch]
